!! 00005] TT[TB
!! Eigene Aufnahme
!!!OTL: Shiliu kai hua ye'r qing
!!!ARE: Asia, China,ÿHubei, Huangmei
!! Ethnic Group: Han
!! I, 361
!!!SCT: C0102
!!!YEM: Copyright 1995, estate of Helmut Schaffrath.
**kern
*ICvox
*Ivox
!! Mixed meters:  2/4; 3/4
*M3/4
*k[f#c#g#]
*A:
{8e
16e
16ee
8ee
16cc#
16b
=1
16a
16f#
16e
16f#
4a}
=2
{8.a
16cc#
8b
8a
=3
16b
16a
8f#
4e}
=4
{16b
16cc#
16b
16f#
16e
16f#
16a
16cc#
=5
16b
16a
8f#
4e}
=6
{16a
16f#
4e
16f#
16a
8.b
16cc#
=7
*M2/4
16b
16a
8f#
4f#}
=8
{16b
16cc#
16b
16f#
16e
16f#
16a
16cc#
=9
16b
16a
8f#
4e}
==
!!!AGN: Haozi, Dawo haozi. Xiudi zaofang shi chang. Xin minge
!! Neues V. - Die Saengerin klopft an den entsprechenden Stellen
!!    auf den Tisch.  Saengerin: Huang Bai = leicht variiert
!!    Vereinzelt Verzierungen und Glissandi.
!!!ONB: ESAC (Essen Associative Code) Database: CHINA
!!!AMT: irregular
!!!AIN: vox
!!!EED: Helmut Schaffrath
!!!EEV: 1.0
*-
